X:1
T:6 Lieder, Op.5
T:Auf ein schlummerndes Kind
T:2. Auf ein schlummerndes Kind
T:Peter Cornelius
T:Friedrich Hebbel
T:6 Lieder, Op.5
T:Creative Commons copyright waiver (CC0 1.0 Universal) 
T:Creative Commons copyright waiver (CC0 1.0 Universal) 
T:Creative Commons copyright waiver (CC0 1.0 Universal) 
C:Peter Cornelius
Z:Friedrich Hebbel
Z:Creative Commons copyright waiver (CC0 1.0 Universal)
Z:
L:1/8
M:3/2
K:Eb
V:1 treble nm="Voice" snm="Vo."
V:1
 z12 | z12 | z GAe dFcB B2 G2 | z EFc BEAG G2 F2 | z EEF G>Gc>=B B3 B |[M:4/4] d>c c2 z c eG | %6
w: ||Wenn ich, o Kind- lein, vor dir ste- he,|wenn ich im Traum dich lä- cheln se- he,|wie du- er- glühst so wun- der- bar, da|ah- ne ich mit süs- sem|
 B2 =A2 z4 | d2 cB BG fe | e4- ec AF | DE ^F=A c B2 D | E4 z4 | z8 | E2 EC GD DD | D2 =E2 z4 | %14
w: Grau- en:|dürft' ich in dei- ne Traü- me|schau- * * en, dann|wär' mir al- les, al- * les|klar.||Dir ist die Er- de noch ver-|schlos- sen,|
 B2 =AG F=E cB | B2 =A2 z4 | =e2 dc c=B B=A |[K:A] G2 z2 z c BF | GB dd d2 c2 | z4 z c BF | %20
w: du hast noch kei- ne Lust ge-|nos- sen,|noch ist kein Glück, das du em-|pfingst Wie könn- test|du so süss denn träu- men,|wenn du nicht|
 GG e>^d d2 cB | ^A3 A cB FG |[K:Eb][M:3/2] ^A4 z4 z4 | z _G_Ae =dF_cB B2 G2 | z EF_c BEA_G G2 F2 | %25
w: noch in je- nen Räu- men, wo-|her du ka- mest, dich er-|ging'st?|Drum wenn, o Kind, ich vor dir ste- he,|wenn ich im Traum dich lä- cheln se- he,|
 z EEF _GG_d>=c c3 c |[M:4/4] c>=G G2 z c eG | B2 =A2 z4 | d2 cB BG fe | e4- ec AF | %30
w: wie du er- glühst so wun- der- bar, da|ah- ne ich mit süs- sem|Grau- en:|dürft' ich in dei- ne Träu- me|schau- * * en, dann|
 DE ^F=A c B2 D | E4 z4 | z8 |] %33
w: wär' mir al- les, al- * les|klar.||

